brandFactory_export/2.Regular/Diente muela _2Regular.svg

<?xml version="1.0" encoding="UTF-8"?>
<svg width="24px" height="24px" viewBox="0 0 24 24" version="1.1" xmlns="http://www.w3.org/2000/svg" xmlns:xlink="http://www.w3.org/1999/xlink">
    <title>2.Regular/Diente muela _2Regular</title>
    <g id="Symbols" stroke="none" stroke-width="1" fill="none" fill-rule="evenodd">
        <g id="2.Regular/Diente-muela-_2Regular" fill="#5CB615" fill-rule="nonzero">
            <path d="M15.4352941,21.4386555 C15.5361345,21.6067227 15.687395,21.8487395 15.8016807,21.989916 C15.892437,22.107563 15.9831933,22.1848739 16.0672269,22.2184874 L16.107563,22.205042 C16.1042017,22.1848739 16.1983193,22.107563 16.2823529,22 C16.4336134,21.8117647 16.5915966,21.5394958 16.6823529,21.3848739 L16.7495798,21.2739496 C17.4117647,20.0705882 17.8117647,19.1966387 18.3092437,17.8487395 C18.6252101,17.0084034 18.8907563,16.1613445 19.1226891,15.2470588 C19.1798319,15.0420168 19.2369748,14.8 19.3008403,14.5344538 L19.4319328,14.1243697 C20.6184874,12.0739496 21.4554622,10.0504202 21.9226891,8.11092437 C22.487395,5.74117647 22.0504202,3.79831933 20.6890756,2.64201681 C19.8991597,1.96302521 18.8134454,1.55630252 17.6268908,1.49579832 C16.3361345,1.42521008 15.0016807,1.7512605 13.7613445,2.44033613 C13.3008403,2.69915966 12.8302521,2.96470588 12.312605,3.27394958 C12.2285714,3.32436975 12.0605042,3.42521008 11.8184874,3.42521008 C11.5663866,3.42521008 11.394958,3.3210084 11.3142857,3.27394958 C10.7966387,2.96806723 10.3260504,2.69915966 9.86554622,2.44033613 C8.62521008,1.7512605 7.2907563,1.41848739 6.00336134,1.49579832 C4.81344538,1.55630252 3.72773109,1.96302521 2.94117647,2.63865546 C1.57647059,3.79831933 1.1394958,5.73781513 1.70420168,8.11092437 C2.17142857,10.0470588 3.00840336,12.0705882 4.19495798,14.1243697 L4.27226891,14.3159664 L4.32941176,14.5546218 C4.39327731,14.8134454 4.45042017,15.0487395 4.50084034,15.2403361 C4.73613445,16.1647059 5.00168067,17.0151261 5.31428571,17.8453782 C5.81512605,19.1966387 6.21176471,20.0705882 6.89411765,21.3042017 L6.94453782,21.3882353 C7.03529412,21.5428571 7.19663866,21.8151261 7.33781513,21.9932773 C7.42857143,22.1109244 7.51932773,22.1882353 7.60336134,22.2218487 L7.64369748,22.2084034 C7.64033613,22.1882353 7.73445378,22.1109244 7.81848739,22.0033613 C7.93613445,21.8554622 8.08739496,21.6168067 8.18823529,21.4487395 L8.18823529,21.4386555 L8.2789916,21.2739496 C8.33613445,21.1731092 8.50420168,20.7226891 8.65546218,20.3260504 C9.91260504,17.0151261 10.7058824,15.4386555 11.8117647,15.4386555 C12.9210084,15.4386555 13.7142857,17.0151261 14.9714286,20.3260504 C15.1226891,20.7226891 15.2907563,21.1731092 15.3478992,21.2739496 L15.4352941,21.4386555 L15.4352941,21.4386555 Z M16.1176471,23.6571429 L15.9798319,23.6571429 C15.7915966,23.6571429 15.6504202,23.610084 15.5630252,23.5798319 C15.1966387,23.4352941 14.9042017,23.210084 14.6554622,22.8941176 C14.4168067,22.6016807 14.1478992,22.1344538 14.0739496,21.9966387 L13.9831933,21.7983193 C13.8957983,21.6033613 13.7815126,21.3042017 13.6033613,20.8336134 C13.287395,20 12.3764706,17.6033613 11.8084034,16.9781513 C11.2403361,17.6033613 10.3327731,20.0033613 10.0168067,20.8336134 C9.84201681,21.297479 9.72773109,21.5932773 9.64033613,21.7882353 L9.6302521,21.8352941 L9.54285714,21.9966387 C9.46890756,22.1344538 9.2,22.6016807 8.95462185,22.9008403 C8.71596639,23.2067227 8.42352941,23.4319328 8.09411765,23.5630252 C7.9697479,23.6067227 7.82857143,23.6537815 7.65042017,23.6537815 L7.51596639,23.6537815 C7.32773109,23.6537815 7.18655462,23.6067227 7.09915966,23.5764706 C6.73277311,23.4319328 6.44033613,23.2067227 6.19495798,22.8907563 C6.00336134,22.6554622 5.80504202,22.3193277 5.68739496,22.1176471 L5.63361345,22.0268908 C4.89411765,20.6890756 4.47394958,19.7680672 3.94621849,18.3428571 C3.61680672,17.4655462 3.33445378,16.5680672 3.08907563,15.5966387 C3.03865546,15.405042 2.97815126,15.1563025 2.91092437,14.887395 L2.87731092,14.7495798 C1.64705882,12.6084034 0.776470588,10.4840336 0.285714286,8.43697479 C-0.413445378,5.5092437 0.191596639,3.05210084 1.98991597,1.52605042 C3.01848739,0.642016807 4.41680672,0.114285714 5.92605042,0.0369747899 C7.4789916,-0.0470588235 9.09243697,0.339495798 10.5747899,1.16302521 C10.9747899,1.38823529 11.3781513,1.61680672 11.8117647,1.87226891 C12.2588235,1.61008403 12.6588235,1.38487395 13.0487395,1.16638655 C14.5310924,0.342857143 16.1478992,-0.0470588235 17.7042017,0.0369747899 C19.210084,0.114285714 20.6084034,0.642016807 21.6403361,1.52941176 C23.4352941,3.05546218 24.0403361,5.5092437 23.3411765,8.43697479 C22.8504202,10.4840336 21.9764706,12.605042 20.7495798,14.7495798 L20.7193277,14.8672269 C20.6521008,15.1462185 20.5915966,15.4016807 20.5344538,15.6067227 C20.292437,16.5613445 20.0134454,17.4588235 19.6773109,18.3462185 C19.1529412,19.7647059 18.7327731,20.6857143 18.010084,21.9932773 L17.9394958,22.1142857 C17.8218487,22.3159664 17.6235294,22.6487395 17.4252101,22.8941176 C17.1865546,23.2 16.8941176,23.4252101 16.5647059,23.5563025 C16.4403361,23.610084 16.2957983,23.6571429 16.1176471,23.6571429 Z" id="Diente-muela-_2Regular"></path>
        </g>
    </g>
</svg>

<svg width="24" height="24" viewBox="0 0 24 24" xmlns="http://www.w3.org/2000/svg"><path d="M15.435 21.439c.101.168.252.41.367.55a.69.69 0 00.265.23l.04-.014c-.003-.02.091-.097.175-.205.152-.188.31-.46.4-.615l.068-.111a22.541 22.541 0 001.56-3.425c.315-.84.58-1.688.813-2.602.057-.205.114-.447.178-.713l.13-.41c1.187-2.05 2.024-4.074 2.492-6.013.564-2.37.127-4.313-1.234-5.469-.79-.679-1.876-1.086-3.062-1.146-1.29-.07-2.625.255-3.866.944-.46.26-.93.525-1.448.834a.925.925 0 01-.495.151c-.252 0-.423-.104-.504-.151a75.699 75.699 0 00-1.448-.834c-1.24-.689-2.575-1.022-3.863-.944-1.19.06-2.275.467-3.062 1.143C1.576 3.799 1.14 5.738 1.704 8.11c.467 1.936 1.304 3.96 2.491 6.013l.077.192.057.239c.064.258.121.494.172.685.235.925.5 1.775.813 2.605.501 1.352.898 2.226 1.58 3.46l.05.083c.091.155.253.427.394.605a.69.69 0 00.265.229l.04-.014c-.003-.02.091-.097.175-.205.118-.148.27-.386.37-.554v-.01l.091-.165c.057-.1.225-.551.376-.948 1.258-3.31 2.05-4.887 3.157-4.887 1.109 0 1.902 1.576 3.16 4.887.15.397.319.847.376.948l.087.165zm.683 2.218h-.138a1.22 1.22 0 01-.417-.077 2.115 2.115 0 01-.908-.686 6.884 6.884 0 01-.581-.897l-.09-.199a20.725 20.725 0 01-.38-.964c-.317-.834-1.228-3.23-1.796-3.856-.568.625-1.475 3.025-1.791 3.856-.175.463-.29.76-.377.954l-.01.047-.087.162a6.797 6.797 0 01-.588.904 2.062 2.062 0 01-.86.662 1.28 1.28 0 01-.445.09h-.134a1.22 1.22 0 01-.417-.077 2.086 2.086 0 01-.904-.685 6.562 6.562 0 01-.508-.773l-.053-.091a23.951 23.951 0 01-1.688-3.684 25.496 25.496 0 01-.857-2.746c-.05-.192-.11-.44-.178-.71l-.034-.137c-1.23-2.142-2.1-4.266-2.591-6.313-.7-2.928-.094-5.385 1.704-6.91C3.018.641 4.417.113 5.926.036c1.553-.084 3.166.302 4.649 1.126.4.225.803.454 1.237.71.447-.263.847-.488 1.237-.707C14.53.343 16.148-.047 17.704.037c1.506.077 2.904.605 3.936 1.492 1.795 1.526 2.4 3.98 1.701 6.908-.49 2.047-1.365 4.168-2.591 6.313l-.03.117c-.068.28-.128.535-.186.74a25.01 25.01 0 01-.857 2.74 23.71 23.71 0 01-1.667 3.646l-.07.121a6.7 6.7 0 01-.515.78 2.062 2.062 0 01-.86.662c-.125.054-.27.101-.447.101z" fill="#5CB615" fill-rule="nonzero"/></svg>
